X: 41863
T: Visit Of Ned Lahane, The
R: jig
M: 6/8
K: Cmajor
|:F|DGA _B2 c|dge fdc|FGA cBc|ded cAF|
DGA _B2 c|dge fef|gfd cAF|AGF G2:|
|:B/d/|g3 ag^f|gdB GAB|cBc dcA|D^FA GBd|
g3 ag^f|gdB GAB|cBc dcA|D^FA G2:|
|:B/d/|gdB GBd|ecA ^FGA|GBd gdB|cde de^f|
gdB GBd|ecA ^FGA|GBd gdB|cA^F G2:|

